dist/images/src/logo-redkix.svg

<svg width="145" height="40" viewBox="0 0 145 40" fill="none" xmlns="http://www.w3.org/2000/svg">
<path fill-rule="evenodd" clip-rule="evenodd" d="M133.545 13.242C133.404 13.123 133.254 13.038 133.115 13.032C132.295 13.0026 131.473 12.9942 130.652 13.007C129.817 13.015 128.959 13.032 128.066 13.032C128.122 13.119 128.173 13.202 128.221 13.279C128.451 13.646 128.613 13.915 128.793 14.171C130.224 16.213 131.626 18.277 133.116 20.276C133.533 20.836 133.58 21.252 133.334 21.732C133.262 21.8694 133.178 22.0005 133.084 22.124C132.642 22.716 132.209 23.314 131.78 23.914C130.944 25.086 130.125 26.269 129.295 27.444C128.872 28.042 128.455 28.644 127.892 29.449C128.702 29.449 129.432 29.433 130.122 29.429C130.694 29.4231 131.266 29.4361 131.836 29.468C132.239 29.493 132.562 29.438 132.835 29.298C133.152 29.138 133.402 28.861 133.631 28.461C133.893 28.005 134.166 27.557 134.45 27.106C135.004 26.224 135.596 25.336 136.208 24.374C137.248 25.936 138.13 27.291 139.047 28.624C139.258 28.93 139.572 29.377 139.857 29.39C140.683 29.4241 141.51 29.4395 142.336 29.436C143.183 29.436 144.062 29.426 145 29.426C143.13 26.766 141.446 24.334 139.713 21.936C139.484 21.62 139.371 21.358 139.39 21.087C139.405 20.87 139.504 20.647 139.696 20.386C140.572 19.188 141.435 17.9806 142.285 16.764L143.073 15.639L144.159 14.089C144.273 13.927 144.381 13.76 144.501 13.571C144.602 13.411 144.713 13.234 144.845 13.029C143.299 13.029 141.991 13.074 140.688 13.011C140.395 12.997 140.162 13.038 139.964 13.131C139.686 13.262 139.479 13.498 139.282 13.831C138.918 14.4433 138.544 15.05 138.161 15.651C137.698 16.381 137.21 17.137 136.688 17.962C136.511 17.692 136.34 17.425 136.173 17.162C135.54 16.168 134.967 15.23 134.372 14.326C134.236 14.1194 134.099 13.9141 133.959 13.71C133.842 13.5369 133.703 13.3796 133.545 13.242ZM75.3833 24.628C74.9963 24.729 74.6553 24.946 74.3263 25.363L74.2803 25.42C73.3623 26.501 71.2103 26.732 69.8103 26.062C69.4732 25.8995 69.166 25.6815 68.9013 25.417C68.4849 24.9963 68.1731 24.4836 67.9911 23.9203C67.809 23.357 67.7618 22.7589 67.8533 22.174H79.8473C80.0463 18.911 79.5313 16.031 76.7313 14.094C71.0993 10.197 63.3363 13.63 62.6343 20.387C62.4143 22.502 62.7123 24.471 63.6003 26.058C64.5063 27.678 66.0263 28.898 68.2383 29.472C70.3063 30.009 72.3983 30.046 74.4583 29.47C75.5163 29.174 76.4683 28.756 77.2783 28.155C78.3723 27.342 79.2033 26.195 79.6763 24.562C78.8223 24.562 78.0683 24.574 77.3473 24.572C76.9773 24.571 76.6173 24.565 76.2553 24.553C75.9625 24.5354 75.6688 24.5607 75.3833 24.628ZM34.6323 6.43402C38.0223 10.058 40.1133 14.924 40.0643 20.26C39.9633 31.18 31.1053 40.013 20.1063 39.999C9.11329 40.122 -0.0597073 30.869 0.000292684 19.832C0.0382927 12.962 3.57029 6.98702 8.81529 3.43802C12.1203 1.19287 16.0248 -0.00512712 20.0203 1.64938e-05C25.7083 0.0130165 30.9413 2.48802 34.6333 6.43402H34.6323ZM50.9493 13.086V29.344H55.7273C55.7273 28.77 55.7233 28.302 55.7273 27.834C55.7473 25.538 55.6803 23.238 55.8093 20.949C55.9853 17.822 58.0173 16.457 61.0123 17.313C61.1203 17.343 61.2353 17.35 61.4223 17.38C61.6183 16.44 61.8193 15.52 62.0013 14.597C62.2943 13.101 62.1713 12.924 60.6603 12.711C60.3076 12.6688 59.9518 12.659 59.5973 12.682C57.8193 12.764 56.6453 13.802 55.6043 15.489L55.4693 13.086H50.9493ZM121.092 29.334H125.86V13.086H121.092V29.334ZM112.916 28.65C113.142 28.974 113.53 29.388 113.86 29.404C115.505 29.481 117.156 29.439 119.073 29.439L112.361 19.593L118.504 13.029C117.388 13.029 116.59 13.129 115.825 13.009C113.734 12.683 112.242 13.423 111 15.135C109.954 16.577 108.633 17.818 107.433 19.149L107.162 19.025V4.84902H102.312V29.369H107.132C107.382 27.155 106.405 24.58 109.248 23.237C110.442 25.008 111.658 26.844 112.916 28.65ZM95.1183 29.349V27.344C94.2883 28.006 93.6183 28.742 92.7883 29.171C89.2583 30.998 84.6253 29.401 83.0193 25.775C81.7053 22.806 81.7353 19.753 83.1053 16.806C84.5993 13.591 88.2493 11.881 91.6533 12.896C92.8703 13.259 93.9173 14.188 94.9733 14.818V4.85002L99.2083 4.82802V29.328L95.1183 29.348V29.349ZM120.899 9.05002H125.945V4.84602H120.899V9.05102V9.05002ZM31.2123 26.79C32.1033 27.026 33.0593 27.022 34.1663 27.142C33.9073 27.643 33.7343 28.066 33.4883 28.444C29.8383 34.05 23.7483 36.524 18.0353 35.772C10.9433 34.839 5.86829 29.732 4.45329 23.27C2.53329 14.502 8.55229 5.89302 17.6803 4.32002C27.0093 2.71202 35.9933 10.252 35.9513 19.654C35.9433 21.606 34.8323 22.853 33.0833 22.874C31.3563 22.894 30.1863 21.671 30.0803 19.734C29.8073 14.734 26.6323 11.091 21.6703 10.08C16.0233 8.93002 10.2003 13.639 9.97029 19.387C9.78029 24.135 12.6933 28.037 16.6043 29.48C20.7343 31.003 25.1013 29.706 28.0773 26.07C28.2023 25.918 28.3113 25.753 28.4073 25.62C29.4673 26.075 30.3083 26.551 31.2123 26.79ZM19.9523 25.88C16.7583 25.852 14.1053 23.117 14.1573 19.905C14.2083 16.714 16.9383 14.073 20.1503 14.108C23.3403 14.143 25.9823 16.87 25.9433 20.091C25.9043 23.279 23.1853 25.907 19.9533 25.879L19.9523 25.88ZM86.8193 24.232C87.3463 25.508 88.4233 26.184 89.7993 26.254C91.1673 26.323 92.2543 25.749 93.0063 24.583C94.1863 22.753 94.1533 19.58 92.9303 17.806C91.4823 15.704 88.4573 15.682 87.1703 17.878C86.5733 18.896 86.3653 20.143 86.0053 21.217C86.3003 22.348 86.4493 23.336 86.8193 24.232ZM67.9483 19.3C67.9913 17.267 69.4743 15.949 71.5933 16.004C73.5373 16.054 74.6943 17.28 74.6333 19.3H67.9483Z" fill="#B2B2B2"/>
</svg>

<svg width="145" height="40" fill="none" xmlns="http://www.w3.org/2000/svg"><path fill-rule="evenodd" clip-rule="evenodd" d="M133.545 13.242c-.141-.119-.291-.204-.43-.21a47.03 47.03 0 00-2.463-.025c-.835.008-1.693.025-2.586.025.056.087.107.17.155.247.23.367.392.636.572.892 1.431 2.042 2.833 4.106 4.323 6.105.417.56.464.976.218 1.456a2.774 2.774 0 01-.25.392c-.442.592-.875 1.19-1.304 1.79-.836 1.172-1.655 2.355-2.485 3.53-.423.598-.84 1.2-1.403 2.005.81 0 1.54-.016 2.23-.02.572-.006 1.144.007 1.714.039.403.025.726-.03.999-.17.317-.16.567-.437.796-.837.262-.456.535-.904.819-1.355.554-.882 1.146-1.77 1.758-2.732 1.04 1.562 1.922 2.917 2.839 4.25.211.306.525.753.81.766.826.034 1.653.05 2.479.046.847 0 1.726-.01 2.664-.01-1.87-2.66-3.554-5.092-5.287-7.49-.229-.316-.342-.578-.323-.849.015-.217.114-.44.306-.701a206.69 206.69 0 002.589-3.622l.788-1.125 1.086-1.55c.114-.162.222-.329.342-.518.101-.16.212-.337.344-.542-1.546 0-2.854.045-4.157-.018-.293-.014-.526.027-.724.12-.278.131-.485.367-.682.7a68.907 68.907 0 01-1.121 1.82c-.463.73-.951 1.486-1.473 2.311-.177-.27-.348-.537-.515-.8-.633-.994-1.206-1.932-1.801-2.836a38.89 38.89 0 00-.413-.616 2.41 2.41 0 00-.414-.468zM75.383 24.628c-.387.101-.728.318-1.057.735l-.046.057c-.918 1.081-3.07 1.312-4.47.642a3.334 3.334 0 01-.909-.645 3.78 3.78 0 01-1.048-3.243h11.994c.2-3.263-.316-6.143-3.116-8.08-5.632-3.897-13.395-.464-14.097 6.293-.22 2.115.078 4.084.966 5.671.906 1.62 2.426 2.84 4.638 3.414 2.068.537 4.16.574 6.22-.002 1.058-.296 2.01-.714 2.82-1.315 1.094-.813 1.925-1.96 2.398-3.593-.854 0-1.608.012-2.329.01-.37-.001-.73-.007-1.092-.019a3.012 3.012 0 00-.872.075zM34.633 6.434c3.39 3.624 5.48 8.49 5.431 13.826-.1 10.92-8.959 19.753-19.958 19.739C9.113 40.122-.06 30.869 0 19.832c.038-6.87 3.57-12.845 8.815-16.394A19.895 19.895 0 0120.02 0c5.688.013 10.921 2.488 14.613 6.434zm16.316 6.652v16.258h4.778c0-.574-.004-1.042 0-1.51.02-2.296-.047-4.596.082-6.885.176-3.127 2.208-4.492 5.203-3.636.108.03.223.037.41.067.196-.94.397-1.86.58-2.783.292-1.496.17-1.673-1.342-1.886a5.791 5.791 0 00-1.063-.029c-1.778.082-2.952 1.12-3.993 2.807l-.135-2.403h-4.52zm70.143 16.248h4.768V13.086h-4.768v16.248zm-8.176-.684c.226.324.614.738.944.754 1.645.077 3.296.035 5.213.035l-6.712-9.846 6.143-6.564c-1.116 0-1.914.1-2.679-.02-2.091-.326-3.583.414-4.825 2.126-1.046 1.442-2.367 2.683-3.567 4.014l-.271-.124V4.849h-4.85v24.52h4.82c.25-2.214-.727-4.789 2.116-6.132 1.194 1.771 2.41 3.607 3.668 5.413zm-17.798.699v-2.005c-.83.662-1.5 1.398-2.33 1.827-3.53 1.827-8.163.23-9.769-3.396-1.314-2.969-1.284-6.022.086-8.969 1.494-3.215 5.144-4.925 8.548-3.91 1.217.363 2.264 1.292 3.32 1.922V4.85l4.235-.022v24.5l-4.09.02v.001zM120.9 9.05h5.046V4.846H120.9v4.205-.001zM31.212 26.79c.891.236 1.847.232 2.954.352-.259.501-.432.924-.678 1.302-3.65 5.606-9.74 8.08-15.453 7.328-7.092-.933-12.167-6.04-13.582-12.502-1.92-8.768 4.1-17.377 13.227-18.95 9.33-1.608 18.313 5.932 18.271 15.334-.008 1.952-1.119 3.199-2.868 3.22-1.727.02-2.897-1.203-3.003-3.14-.273-5-3.448-8.643-8.41-9.654-5.647-1.15-11.47 3.559-11.7 9.307-.19 4.748 2.723 8.65 6.634 10.093 4.13 1.523 8.497.226 11.473-3.41.125-.152.234-.317.33-.45 1.06.455 1.901.931 2.805 1.17zm-11.26-.91c-3.194-.028-5.847-2.763-5.795-5.975.051-3.191 2.781-5.832 5.993-5.797 3.19.035 5.832 2.762 5.793 5.983-.039 3.188-2.758 5.816-5.99 5.788v.001zm66.867-1.648c.527 1.276 1.604 1.952 2.98 2.022 1.368.069 2.455-.505 3.207-1.671 1.18-1.83 1.147-5.003-.076-6.777-1.448-2.102-4.473-2.124-5.76.072-.597 1.018-.805 2.265-1.165 3.339.295 1.131.444 2.119.814 3.015zM67.95 19.3c.042-2.033 1.525-3.351 3.644-3.296 1.944.05 3.101 1.276 3.04 3.296h-6.685z" fill="#B2B2B2"/></svg>
